assets/img/icons/duotone-icons/Map/Position.svg

<?xml version="1.0" encoding="UTF-8"?>
<svg width="24px" height="24px" viewBox="0 0 24 24" version="1.1" xmlns="http://www.w3.org/2000/svg" xmlns:xlink="http://www.w3.org/1999/xlink">
    <!-- Generator: Sketch 52.2 (67145) - http://www.bohemiancoding.com/sketch -->
    <title>Stockholm-icons / Map / Position</title>
    <desc>Created with Sketch.</desc>
    <g id="Stockholm-icons-/-Map-/-Position" stroke="none" stroke-width="1" fill="none" fill-rule="evenodd">
        <rect id="bound" x="0" y="0" width="24" height="24"></rect>
        <path d="M19,11 L21,11 C21.5522847,11 22,11.4477153 22,12 C22,12.5522847 21.5522847,13 21,13 L19,13 C18.4477153,13 18,12.5522847 18,12 C18,11.4477153 18.4477153,11 19,11 Z M3,11 L5,11 C5.55228475,11 6,11.4477153 6,12 C6,12.5522847 5.55228475,13 5,13 L3,13 C2.44771525,13 2,12.5522847 2,12 C2,11.4477153 2.44771525,11 3,11 Z M12,2 C12.5522847,2 13,2.44771525 13,3 L13,5 C13,5.55228475 12.5522847,6 12,6 C11.4477153,6 11,5.55228475 11,5 L11,3 C11,2.44771525 11.4477153,2 12,2 Z M12,18 C12.5522847,18 13,18.4477153 13,19 L13,21 C13,21.5522847 12.5522847,22 12,22 C11.4477153,22 11,21.5522847 11,21 L11,19 C11,18.4477153 11.4477153,18 12,18 Z" id="Oval" fill="#335EEA" opacity="0.3"></path>
        <circle id="Path" fill="#335EEA" opacity="0.3" cx="12" cy="12" r="2"></circle>
        <path d="M12,17 C14.7614237,17 17,14.7614237 17,12 C17,9.23857625 14.7614237,7 12,7 C9.23857625,7 7,9.23857625 7,12 C7,14.7614237 9.23857625,17 12,17 Z M12,19 C8.13400675,19 5,15.8659932 5,12 C5,8.13400675 8.13400675,5 12,5 C15.8659932,5 19,8.13400675 19,12 C19,15.8659932 15.8659932,19 12,19 Z" id="Oval-70" fill="#335EEA"></path>
    </g>
</svg>

<svg width="24" height="24" viewBox="0 0 24 24" xmlns="http://www.w3.org/2000/svg"><g fill="none" fill-rule="evenodd"><path d="M0 0h24v24H0z"/><path d="M19 11h2a1 1 0 010 2h-2a1 1 0 010-2zM3 11h2a1 1 0 010 2H3a1 1 0 010-2zm9-9a1 1 0 011 1v2a1 1 0 01-2 0V3a1 1 0 011-1zm0 16a1 1 0 011 1v2a1 1 0 01-2 0v-2a1 1 0 011-1z" fill="#335EEA" opacity=".3"/><circle fill="#335EEA" opacity=".3" cx="12" cy="12" r="2"/><path d="M12 17a5 5 0 100-10 5 5 0 000 10zm0 2a7 7 0 110-14 7 7 0 010 14z" fill="#335EEA"/></g></svg>
